!!!COM: Mozart, Wolfgang Amadeus
!!!OTL: Musikalische Würfelspiele, Kontre-Tänze
!!!SCA: K<sup>6</sup> Anh. C30.01 (K<sup>3</sup> Anh. 294d)
**kern	**kern
*staff2	*staff2
*clefF4	*clefG2
*M2/4	*M2/4
*MM110	*MM110
*>[A,A1,A,A2,B]	*>[A,A1,A,A2,B]
*>norep[A,A2,B]	*>norep[A,A2,B]
*>A	*>A
=105	=105
4C	16cc
.	16b
.	16cc
.	16dd
4C	16ee
.	16dd
.	16ee
.	16ff
=106	=106
16C	8gg
16G	.
16E	4ee
16G	.
16C	.
16G	.
16E	8cc
16G	.
=160	=160
16GG	8dd
16BB	.
16D	8b
16BB	.
4GG	16g
.	16b
.	16dd
.	16b
=122	=122
4C	8cc
.	8g
4CC	8e
.	8c
=56	=56
8D	8dd
16F#	8dd
16A	.
16d	8ff#
16A	.
16F#	8ff#
16D	.
=92	=92
4G	8gg
.	8dd
4r	8b
.	8g
=137	=137
4C	8ee
.	8ccc
4D	16bb
.	16aa
.	16gg
.	16ff#
=11	=11
*>A1	*>A1
4GG	4g 4b 4gg
16G	4r
16F	.
16E	.
16D	.
=11:|!	=11:|!
*>A2	*>A2
4GG	4g 4b 4gg
16GG	4r
16AA	.
16BB	.
16C#	.
=66||	=66||
*>B	*>B
4D	8ff#
.	16ff#
.	16aa
4D	8ddd
.	16aa
.	16ff#
=124	=124
4G	8b
.	8d
4GG	8gg
.	8bb
=29	=29
4C	16ee
.	16cc
.	16g
.	16cc
4C	16ee
.	16cc
.	16gg
.	16ee
=126	=126
4GG	8b
.	8dd
16G	4g
16F	.
16E	.
16D	.
=151	=151
16C	4cc
16E	.
16G	.
16E	.
4C	8ee
.	8gg
=32	=32
4C	8ccc
.	8gg
4r	8ee
.	8cc
=96	=96
16G	8dd
16D	.
16BB	8dd
16GG	.
16G	8b
16D	.
16BB	8b
16GG	.
=74	=74
4C	4cc
4CC	4c
==	==
*-	*-
